X:1
T:Golden Rule Song
T:Golden Rule Song
T:Scott Werdebaugh, 1993
T:Scott Werdebaugh, 1993
T:© 1993 Scott Werdebaugh &amp; New Heart Music - May be freely copied and used for Christian worship or devotions with no alterations. All other rights reserved.
C:Scott Werdebaugh, 1993
Z:© 1993 Scott Werdebaugh & New Heart Music - May be freely copied and used for
Z:Christian worship or devotions with no alterations. All other rights reserved.
%%score 1 ( 2 3 )
L:1/8
Q:1/4=105
M:2/4
K:C
V:1 treble 
V:2 bass 
V:3 bass 
V:1
"^Lively (in two)" [B,E][B,D] | C2 [B,D]C | [CE] [EG]2 [EG] | [FA][FA] [EG][CE] | [EG]2 [EG][CE] | %5
w: Let us|do un- to|oth- ers As|we would have them|do Un- to|
 [B,D]4- | [B,D]2 [B,G][DF] | [CE]4- | [CE]C C[B,D] | [CE]2 [DF][B,D] | [CE] [EG]2 [EG] | %11
w: us,|* un- to|us;|* For as we|do un- to|oth- ers, We|
 [FA]2 [EG][CE] | [EG]2 ([EG][CE]) | [B,D]4- | [B,D]2 [B,E][B,D] | [G,C]4- | [G,C]2 |] %17
w: do un- to|You, Oh *|Lord|* Je- sus|Christ.||
V:2
 G,F, | [C,E,]2 [D,G,][E,G,] | [C,G,] [C,E,]2 [C,G,] | [C,F,][C,F,] [C,E,][C,G,] | %4
 [C,E,]2 [C,E,][C,G,] | [D,G,]4- | [D,G,]2 [G,D][G,B,] | [C,G,]4- | [C,G,][E,G,] [F,A,]G, | %9
 [C,G,]2 [G,B,]G, | [C,G,] [C,E,]2 [E,G,] | [C,F,]2 [C,E,][E,G,] | [C,E,]2 ([C,E,][E,G,]) | G,4- | %14
 G,2 [D,G,][G,,G,] | [C,E,]4- | [C,E,]2 |] %17
V:3
 G,,2 | x4 | x4 | x4 | x4 | x4 | x4 | x4 | x4 | x4 | x4 | x4 | x4 | G,4- | G,2 x2 | x4 | x2 |] %17

